X:1
T:Passionate impromptu (Страстный экспромт) Second version 
T:Modest Mussorgsky
%%score { ( 1 2 ) | ( 3 4 ) }
L:1/8
Q:1/4=94
M:4/4
K:F#
V:1 treble nm="Piano" snm="Pno."
V:2 treble 
V:3 bass 
V:4 bass 
V:1
"^Andantino amoroso"!pp! (c6 a2 | g4 f4) | (d6 ^B2- | B2 ^B4 c2) |!pp! (c6 a2 | g4 f4) | (d4 A4- | %7
 A2 ^B2 c2 B2) |!p! (B4 e4- | e2 e2 g2 f2) | (e4 c4- | c2 e2 g2 f2) | (f4 A4- |!p! A2 ^B2 A2 B2) | %14
 (d4!pp!"^ritardando" c4- | c2 [Ee]2 [Dd]2 [Cc]2) |"^a tempo"!p! (c6 a2 | g4 f4) | (d6 ^B2- | %19
 B2 ^B4 c2) |!p! (c6 a2 | g4 f4) | (d4 A4- | A2!>(! ^B2 c2 B2)!>)! | (c2 ^^c2 d2 e2 | %25
!pp! c2 f4 g2) | (^B4 c4- |!p! c2 f2 g2 f2) | (^B4 d4- |!p! d2 e4 g2) | (e4 f4- | f2 e4 g2) | %32
 (e4 f4- |!p! f2) (f2 ^^c2 d2- |!>(! d2 e2 g2 c2)!>)! |"^poco riten." (!arpeggio!c2!pp! a2 g2 f2 | %36
 d4 ^B4) |"^a tempo"!p! (c2 =a2 g2 f2) |!p! (f4 =d4- | d2) (B2 G2 F2- | %40
 F2)"^accelerando" (^^c2 B2 G2- | G2) (b2"^ritardando" g2 e2 | c2 B2 G2 E2) | %43
!pp![Q:1/4=94]"^Meno mosso" (c6 a2 | g4 f4) | (d4 A4- | A2 ^B4 c2) | (c6 a2 | g4 f4) | %49
 (d6 [^^C^^c]2) | ^c4 B4 |!pp! C6 A2 | G4 F4 |[K:bass]!pp! (D8 |"^rallentando" ^^C8 | E4 G4) | %56
[K:treble] (B4 ^^c4) |!ppp! !fermata![^^cegb^^c']8 |!pp! ([^^cfa^^c']2"_dim." a4 g2- | g2 f4 d2- | %60
"^ritenuto assai" d2 c4 A2- | A2 F4 E2) |!pp! [Ff]4- [Ff]4 |!>(! [FAcf]8-!>)! |!>(! [FAcf]8!>)! | %65
!ppp! !fermata![fac'f']8 |] %66
V:2
 z"_e sempre legato" [FA]2 [FA]2 [Ac]2 [Ac]- |[Ac] [Ac]2 [Ac]2 [Ac]2 [Ac]- | %2
[Ac] [FA]2 [FA]2 [FA]2 [FG]- |[FG] [FG]2 [FG]2 [FG]2 [EG=B] | z [FA]2 [FA]2 [Ac]2 [Ac]- | %5
[Ac] [Ac]2 [Ac]2 [Ac]2 [Ac]- |[Ac] [FA]2 [FA]2 [FA]2 [DF]- |[DF] [DF]2 [DFG]2 [EG]2 [EG=B] | %8
 z!<(! [EG]2 [EG]2 [EBc]2 [EBc]- |[EBc] [EB^^c]2 [EBc]2!<)!!>(! [GBc]2 [FB=d]- | %10
[FBd] [EGB]2 [EGB]2!>)!!p! [CEG]2 [CEG]- |[CEG] [EGB]2 [EB^^c]2 [GBc]2 [FB=d]- | %12
 [FBd]!>(! [FA]2 [FA]2 [DF]2 [DF]-!>)! |[DF]!>(! [DF]2 [DFG]2 [DFG]2 [DFG]- | %14
[DFG]!>)! [DFG]2 [DFG]2 [EG]2!>(! [C-E-G] |[CE] [GB]2 [GB]2 [GB]2 [GB]!>)! | %16
 z [FA]2 [FA]2 [Ac]2 [Ac]- |[Ac] [Ac]2 [Ac]2 [Ac]2 [Ac]- |[Ac] [FA]2 [FA]2 [FA]2 [FG]- | %19
[FG] [FG]2 [FG]2 [FG]2 [EG=B] | z [FA]2 [FA]2 [Ac]2!>(! [Ac]- |[Ac] [Ac]2 [Ac]2 [Ac]2!>)! [Ac]- | %22
[Ac] [FA]2 [FA]2 [FA]2 [DF]- |[DF] [DF]2 [DFG]2 [DFG]2 [EG=B] | z [EG]2 [EGB]2 [GB]2 [EGB] | %25
 z!<(! [F=A]2 [Ac]2 [Ac]2 [Ac]!<)! | z!>(! [FG]2 [FG]2 [F=A]2 [FA]-!>)! | %27
[FA]!<(! [F=A]2 [Ac]2!<)!!>(! [Ac]2 [Ac] | z [FG]2 [FG]2!>)! [FG]2 [FG] | %29
 z!<(! [GB]2 [GB]2 [GB]2 [GB] | z [GB]2 [GB]2!<)!!>(! [FA]2 [FA] | z [GB]2 [GB]2 [GB]2!>)! [GB] | %32
 z [GB]2 [GB]2 [FA]2 [FA]- |[FA] [FA]2 [FA]2 [FA]2 [FA] | z [GB]2 [GB]2 [GB]2 [EGB] | %35
 !arpeggio![CFA]!>(! C2!>)!!>(! [Ac]2 [Ac]2 [Ac] | z [FA]2 [FA]2 [F=A]2 [FA]!>)! | %37
 z!>(! [F=A]2 [Ac]2 [Ac]2 [Ac]!>)! | z [FB]2 [FB]2 [FB]2 [FB] | %39
 z!>(! [=DF]2 [DF]2 [B,D]2!>)! [B,D] | z!>(! [B,=D]2 [DF]2 [DF]2 [DF]!>)! | %41
 z [EG]2"_dim." [Bce]2 [GBc]2 [GB] | z [EGB]2 [EG]2 [CE]2 [Gc] | z [FA]2 [FA]2 [Ac]2 [Ac] | %44
 z [Ac]2 [Ac]2 [Ac]2 [Ac] | z [FA]2 [FA]2 [DF]2 [DF] | z [DF]2 [DF]2 [DFG]2 [EG=B] | %47
 z [FA]2 [FA]2 [Ac]2 [Ac] | z [Ac]2 [Ac]2 [Ac]2 [Ac] | z [FA]2 [FA]2 [FA]2 [FB] | %50
 z [EG]2 [CEG]2 [CEG]2 [CEG] | A [A,C]2 [A,C]2 [A,C]2 [A,C] | z [A,C]2 [A,C]2 [A,C]2 [A,C] | %53
[K:bass] z [F,B,]2 [F,B,]2 [F,B,]2 [F,B,] | z [E,G,B,]2 [E,G,B,]2 [E,G,B,]2 [G,B,] | %55
 z [G,B,]2 [G,B,]2 [B,^^CE]2 [B,CE] |[K:treble] z [^^CEG]2 [CEG]2 [EGB]2 [EGB] | x8 | x8 | x8 | %60
 x8 | x8 | (([Ad]4 [B=d]4)) | f2 A4 G2 | F2 z2 z4 | x8 |] %66
V:3
 (F,,2 F,2 A,2 C2) | (F2 C2 A,2 F,2) | ([D,,D,]2 A,2 D2 G,2) | ([C,,C,]2 G,2 [C,C]2 =B,2) | %4
 ([F,,F,]2 A,2 C2 F2) | (C2 A,2 [F,F]2 C2) | ([F,,F,]2 A,2 D2 A,2) | ([F,,F,]2 G,2 [C,,C,]2 C2) | %8
 ([C,,C,]2 G,2 [C,C]2 G,2) | ([^^C,,^^C,]2 B,2 [C,^^C]2 B,2) | ([^C,,^C,]2 G,2 [C,C]2 G,2) | %11
 ([^^C,,^^C,]2 B,2 [C,^^C]2 B,2) | ([D,,D,]2 A,2 D2 D,2) | ([G,,,G,,]2 G,2 ^B,2 G,2) | %14
 ([C,,C,]2 G,2 [C,C]2 G,2) | [C,,C,]2 C,6- | C,2 z2 (!>!C4- | C2 A2 G2 F2) | z4 (!>!C4- | %19
 C4 ^B,2 C2) | z4 (!>!C4- | C2 A2 G2 F2) | ([F,,F,]2 A,2) (!>!D,2 A,2) | %23
 [F,,F,]2 (G,2 [F,,F,]2 [E,,E,]2) | ([C,,C,]2 G,2 [C,B,]2 G,2) | ([=A,,,=A,,]2 =A,2 C2 F2) | %26
 ([G,,,G,,]2 G,2 [=A,,,=A,,]2 [=A,C]2) | ([=A,,,=A,,]2 =A,2 C2 F2) | %28
 ([G,,,G,,]2 G,2 [G,,^B,]2 G,2) | ([^^C,,^^C,]2 ^^C2 D2 E2) | [^^C,^^C]2 C,2 [D,A,]2 D,2 | %31
 [=A,,,=A,,]2 (^^C2 D2 E2) | (^^C4 D4) | ([F,,F,]2 F,2 A,2 D2) | ([C,,C,]2 G,2 [C,B,]2 C2) | %35
 (!arpeggio![C,,F,,A,,C,]2 F,2 A,2 C2) | ([C,,C,]2 D,2 F,2 =A,2) | ([C,,C,]2 F,2 =A,2 C2) | %38
 ([C,,C,]2 B,,2 =D,2 F,2) | ([C,,C,]2 =D,2 F,2 G,2) | ([C,,C,]2 F,2 G,2 B,2) | %41
 ([C,,C,]2 C2 E2 G2) | ([C,,C,]2 E,2 G,2 [C,B,]2) | ([F,,F,]2 A,2 C2 F2) | ([F,,F,]2 A,2 C2 F2) | %45
 ([D,,D,]2 A,2 D2 D,2) | ([G,,,G,,]2 G,2 [C,,C,]2 B,2) | ([F,,F,]2 F,2 A,2 C2) | (F2 C2 A,2 F,2) | %49
 ([D,,D,]2 F,2 A,2{/B,,,} [B,,B,]2) | ([C,,C,]2 E,2 G,2 [C,B,]2) | C,8 | E,8 | F,8 | E,8 | ^^C,8 | %56
 (G,2 B,2 ^^C2 E2) | !fermata![E,G,B,^^CE]8 | [F,,F,]2 z2 (F,4 | A,4 C4 | F4 f4 | a4 c'4) | %62
 f'2 z2[K:bass] [B,,=D,F,B,]4 | F,8- | F,2 G,4 F,2- | F,8 |] %66
V:4
 x8 | x8 | x8 | x8 | x8 | x8 | x8 | x8 | x8 | x8 | x8 | x8 | x8 | x8 | x8 | x2 (C4 B,2) | %16
 F,,2 F,4 F,2 | [F,,F,]2 F,6 | [D,,D,]2 A,2 D,2 G,2 | [C,,C,]2 G,2 C,4 | [F,,F,]2 A,2 F,2 F,2 | %21
 [C,,C,]2 F,6 | z4 D4- | D2 x6 | x8 | x2 G,6 | x8 | x2 G,6 | x8 | x2 ^^C,6 | (D4 D4) | x2 C,6- | %32
 C,2 ^^C,2 [D,A,]2 D,2 | x8 | x8 | x8 | x8 | x8 | x8 | x8 | x8 | x8 | x8 | x8 | x8 | x8 | x8 | x8 | %48
 x8 | x8 | x8 | (F,,2 A,,2 C,2 F,2) | (F,,2 F,,2 A,,2 C,2) | (F,,2 B,,2 D,2 F,2) | %54
 (F,,2 B,,2 ^^C,2 E,2) | (F,,2 B,,2 ^^C,2 E,2) | F,,8 | x8 | x8 | x8 | x8 | x8 | x4[K:bass] x4 | %63
 F,,8- | F,,8 | !fermata!F,,8 |] %66

